X: 1732
T: Mrs Corry's Polka Mazurka
B: australian traditional tunes wiki
M:3/4
L:1/8
R: Polka Mazurka
Q: 1/4=140
K:G
V:1 
G>A|:"G"B2B>A B>c|d2B2B>B|"D7"c2A2A>A|"G"B2G2G>A|B2B>A B>c|d2B2B>B|"D7"c2B2A2|"G"G2-Gzd>d|
"C"g2f2e>e|"G"d2B2B>B|"D7"c2A2A>A|"G"B2G2G>G|"C"g2f2e>e|"G"d2B2B>B|"D7"c2B2A>A|"G"G4G>A:|
% abcbook-tune_id 6342d53a5c189e112491b797


% abcbook-boost 0
% abcbook-tablature 
% abcbook-transpose 
% abcbook-lastupdated 1665324380605
% abcbook-soundfonts 
% abcbook-repeats 1
% NFF Book 2020

